svgs/sharp-solid/paste.svg

<svg xmlns="http://www.w3.org/2000/svg" viewBox="0 0 512 512"><!--! Font Awesome Pro 6.6.0 by @fontawesome - https://fontawesome.com License - https://fontawesome.com/license (Commercial License) Copyright 2024 Fonticons, Inc. --><path d="M160 0c-23.7 0-44.4 12.9-55.4 32L0 32 0 448l192 0 0-320 0-32 32 0 96 0 0-64L215.4 32C204.4 12.9 183.7 0 160 0zm0 40a24 24 0 1 1 0 48 24 24 0 1 1 0-48zm96 88l-32 0 0 32 0 288 0 64 288 0 0-288-96-96-96 0-64 0z"/></svg>

<svg xmlns="http://www.w3.org/2000/svg" viewBox="0 0 512 512"><!--! Font Awesome Pro 6.4.2 by @fontawesome - https://fontawesome.com License - https://fontawesome.com/license (Commercial License) Copyright 2023 Fonticons, Inc. --><path d="M160 0c-23.7 0-44.4 12.9-55.4 32H0V448H192V128 96h32 96V32H215.4C204.4 12.9 183.7 0 160 0zm0 40a24 24 0 1 1 0 48 24 24 0 1 1 0-48zM384 240V128H320 256 224v32V448v64H512V256H400 384V240zm32-16h96l-96-96v96z"/></svg>
